libs/ui/packages/crypto-icons/src/svg/ELLA.svg

<svg width="24" height="24" viewBox="0 0 24 24" fill="none">
<path fill-rule="evenodd" clip-rule="evenodd" d="M13.5548 9.909L12 8.355L10.4348 9.9195L8.81175 8.2965L12 3.75L15.21 8.25375L13.5548 9.909ZM9.8925 10.4625L8.355 12L9.909 13.5548L8.292 15.1718L3.75 12L8.2425 8.8125L9.8925 10.4625ZM14.0805 13.5653L15.645 12L14.097 10.452L15.7665 8.7825L20.25 12L15.717 15.2017L14.0805 13.5653ZM10.452 14.0978L12 15.645L13.5375 14.1075L15.174 15.7448L12 20.25L8.847 15.702L10.452 14.0978ZM12 9.39525L14.604 12L12 14.604L9.396 12L12 9.39525Z" fill="#396A28"/>
</svg>

<svg width="24" height="24" viewBox="0 0 24 24" fill="none"><path fill="#396a28" fill-rule="evenodd" d="M13.555 9.909 12 8.355l-1.565 1.564-1.623-1.623L12 3.75l3.21 4.504zm-3.662.553L8.355 12l1.554 1.555-1.617 1.617L3.75 12l4.493-3.187zm4.188 3.103L15.645 12l-1.548-1.548 1.67-1.67L20.25 12l-4.533 3.202zm-3.629.533L12 15.645l1.537-1.537 1.637 1.637L12 20.25l-3.153-4.548zM12 9.395 14.604 12 12 14.604 9.396 12z" clip-rule="evenodd"/></svg>
